!!!COM:	de Orto, Marbrianus
!!!CDT:	~1460///-1529//
!!!OPR:	Missa J'ay pris amours
!!!ONM:	4
!!!OTL:	Sanctus
!!!AGN:	Mass; Sanctus
!!!SCT:	Ort1002d
!!!SCA:	Ort1002d
!!!voices-OPR:	4
!!!voices:	4
**kern	**kern	**kern	**kern
*staff4	*staff3	*staff2	*staff1
*Ivox	*Ivox	*Ivox	*Ivox
*I"Bassus	*I"Tenor	*I"Altus	*I"Discantus
*I'B	*I'T	*I'A	*I'D
*>[A,B,C,D,C]	*>[A,B,C,D,C]	*>[A,B,C,D,C]	*>[A,B,C,D,C]
*>A	*>A	*>A	*>A
*clefF4	*clefGv2	*clefGv2	*clefG2
*k[]	*k[]	*k[]	*k[]
*M2/1	*M2/1	*M2/1	*M2/1
*met(C)	*met(C)	*met(C)	*met(C)
!!section: Sanctus
!!!OMD: Sanctus
=1-	=1-	=1-	=1-
0A	1r	0r	1.a
.	1F	.	.
.	.	.	4g/
.	.	.	4f/
=2	=2	=2	=2
1c	1A	0r	1e
1B	1E	.	2r
.	.	.	[2g/
=3	=3	=3	=3
1E	0e	0r	4g/]
.	.	.	4a/
.	.	.	2b\
2r	.	.	2cc\
2G\	.	.	2b\
=4	=4	=4	=4
2.A\	1e	0r	2cc\
.	.	.	4b\
4B\	.	.	4a/
2c\	1r	.	2g/
4B\	.	.	2r
4G\	.	.	.
=5	=5	=5	=5
2A\	2r	0r	2cc\
2G\	2E/	.	4b\
.	.	.	4g/
2r	2F/	.	2a/
2B\	2G/	.	2g/
=6	=6	=6	=6
2c\	2A/	0r	2r
2d\	2G/	.	1b
2e\	2E/	.	.
[2c\	[2A/	.	2cc\
=7	=7	=7	=7
2c\]	2A/]	0r	2.a/
2d\	1F	.	.
.	.	.	4b\
2c\	.	.	4cc\
.	.	.	4dd\
2A\	2c\	.	[2ee\
=8	=8	=8	=8
1B	1d	0r	2ee\]
.	.	.	1dd
1A	1e	.	.
.	.	.	2cc#i\
=9	=9	=9	=9
0D	1f	1d	2.dd\
.	.	.	4cc\
.	1d	1f	1a
=10	=10	=10	=10
1A	2.c\	1e	0cc
.	4d\	.	.
1c	1e	1A	.
=11	=11	=11	=11
2F\	1A	2r	1cc
2A\	.	2c\	.
1G	2r	2d\	1b
.	2B\	2e\	.
=12	=12	=12	=12
0F	1c	2f\	1a
.	.	4e\	.
.	.	4c\	.
.	2.f\	2d\	2r
.	.	2c\	2a/
.	4e\	.	.
=13	=13	=13	=13
2G\	2d\	2r	2b\
2A\	2c\	2e\	2cc\
2D\	2A/	2f\	2dd\
2E\	2G/	2g\	2b\
=14	=14	=14	=14
2F\	2c\	2a\	2a/
2G\	2B\	4g\	2r
.	.	4e\	.
2D\	2A/	4f\	2a/
.	.	2d\	.
2G\	2G/	.	4b\
.	.	4e\	4g/
=15	=15	=15	=15
2F\	1r	4d\	2a/
.	.	4B\	.
2E\	.	2c#i\	2g/
2D\	2A/	1d	2a/
[2d\	[2G/	.	[2b\
=16	=16	=16	=16
2d\]	2G/]	1r	4b\]
.	.	.	4a/
2c\	2A/	.	1a
1B	2d\	1d	.
.	2B\	.	2g#i/
=17	=17	=17	=17
0A	2.c\	2f\	1a
.	.	1e	.
.	4A/	.	.
.	2c\	.	1r
.	4d\	2c\	.
.	4e\	.	.
=18	=18	=18	=18
1F	1f	2d\	2.a/
.	.	1c	.
.	.	.	4b\
2A\	2e\	.	2cc\
2B-i\	[2d\	[2f\	2dd\
=19	=19	=19	=19
1G	2d\]	2f\]	1b
.	2B\	2e\	.
1F	1c	1f	1a
=20	=20	=20	=20
1B-i	0r	1r	1dd
2A\	.	1f	2cc\
2B-i\	.	.	[2dd\
=21	=21	=21	=21
2c\	0r	2e\	2dd\]
2A\	.	2c\	1cc
1G	.	1d	.
.	.	.	2b\
=22	=22	=22	=22
2.A\	1e	2c\	1cc
.	.	1A	.
4G\	.	.	.
2F\	1f	.	1r
2D\	.	[2d\	.
=23	=23	=23	=23
1A	1e	2d\]	1r
.	.	2c#i\	.
1r	2d\	2d\	2a/
.	4c\	2e\	[2cc\
.	4B\	.	.
=24	=24	=24	=24
0r	4A/	1c	4cc\]
.	4G/	.	4b\
.	1F	.	1a
.	.	1r	.
.	2G/	.	[2g/
=25	=25	=25	=25
1r	1A	1c	2g/]
.	.	.	2f#i/
2.B\	1G	2.d\	1g
4c\	.	4c\	.
=26	=26	=26	=26
2d\	0r	4B\	2r
.	.	4A/	.
[1.e	.	1A	1cc
.	.	2G/	2b\
=27	=27	=27	=27
2e\]	0r	1A	2.cc\
1c	.	.	.
.	.	.	4b\
.	.	2r	2a/
2A\	.	2e\	2cc\
=28	=28	=28	=28
1G	1r	2e\	1b
.	.	2e\	.
2.F\	[1c	2f\	[1a
.	.	4e\	.
4G\	.	4d\	.
=29	=29	=29	=29
2A\	2c\]	2c\	1a]
2F\	2A/	2d\	.
2.E\	2B\	2e\	2g/
.	2G/	[2c\	2e/
4F\	.	.	.
=30	=30	=30	=30
1G	2r	2c\]	1d
.	2G/	2B\	.
2F\	2A/	1c	2r
2E\	2G/	.	2g/
=31	=31	=31	=31
1A	1c	2r	2a/
.	.	2A/	2e/
2E\	2G/	2B\	2g/
2A\	2c\	2c\	2a/
=32	=32	=32	=32
2G\	2B\	2d\	2b\
2F\	2r	2A/	2cc\
2E\	2.e\	2r	2g/
2A\	.	2c\	2r
.	4d\	.	.
=33	=33	=33	=33
2G\	2B\	2d\	0r
2A\	2A/	2c\	.
2D\	2r	2.f\	.
2F\	2A/	.	.
.	.	4e\	.
=34	=34	=34	=34
2G\	2B\	2d\	2b\
2A\	2A/	2c\	2cc\
2D\	2d\	2f\	2dd\
[2A\	2c\	4e\	2ee\
.	.	[4a\	.
=35	=35	=35	=35
2A\]	2e\	4a\]	1cc
.	.	4g\	.
2A\	2A/	2e\	.
1D	2r	2f\	2.dd\
.	2A/	[2d\	.
.	.	.	4cc\
=36	=36	=36	=36
1r	2G/	2d\]	4b\
.	.	.	4a/
.	2A/	2c\	1a
1G	1B	[1dl	.
.	.	.	2g/
=37	=37	=37	=37
1D	2.A/	0d_	2a/
.	.	.	1dd
.	4F/	.	.
[1Gl	4G/	.	.
.	4D/	.	.
.	2G/	.	2b\
=38	=38	=38	=38
0G]	0Gl	0d]	0bl
!!LO:LB:i:g=z
=39||	=39||	=39||	=39||
*>B	*>B	*>B	*>B
*clefF4	*clefGv2	*clefGv2	*clefG2
*k[]	*k[]	*k[]	*k[]
*M2/1	*M2/1	*M2/1	*M2/1
*met(C)	*met(C)	*met(C)	*met(C)
!!section: Pleni sunt celi
!!!OMD: Pleni sunt celi
0E	0r	0e	0b
=40	=40	=40	=40
0G	0r	1d	0b
.	.	[1e	.
=41	=41	=41	=41
1A	0r	2e\]	1cc
.	.	2f\	.
1E	.	[1g	1b
=42	=42	=42	=42
1C	0r	1g]	1ee
1D	.	[1f	1dd
=43	=43	=43	=43
0AA	0r	1f]	0cc
.	.	[1e	.
=44	=44	=44	=44
1E	0E	2e\]	0b
.	.	2d\	.
1r	.	2.e\	.
.	.	4d\	.
=45	=45	=45	=45
0r	0E	2c\	0r
.	.	1B	.
.	.	[2c\	.
=46	=46	=46	=46
0r	1F	2c\]	0r
.	.	4B\	.
.	.	4A/	.
.	1E	2G/	.
.	.	[2c\	.
=47	=47	=47	=47
0r	1A	4c\]	0r
.	.	4d\	.
.	.	1e	.
.	2G/	.	.
.	[2A/	[2f\	.
=48	=48	=48	=48
0r	4A/]	2f\]	0r
.	4G/	.	.
.	2E/	1e	.
.	1F	.	.
.	.	2d\	.
=49	=49	=49	=49
[0E	1E	[0e	0g
.	1r	.	.
=50	=50	=50	=50
0E]	2r	0e]	0g
.	1B	.	.
.	[2c\	.	.
=51	=51	=51	=51
1F	2c\]	1A	1a
.	2d\	.	.
1E	1e	1B	1g
=52	=52	=52	=52
1A	2c\	1A	1cc
.	1f	.	.
1G	.	1E	1b
.	[2e\	.	.
=53	=53	=53	=53
0F	2e\]	1c	0a
.	4d\	.	.
.	4c\	.	.
.	1d	1A	.
=54	=54	=54	=54
[0E	1.e	2B\	0g
.	.	4c\	.
.	.	4B\	.
.	.	2c\	.
.	2d\	2B\	.
=55	=55	=55	=55
0E_	1B	2e\	1.g
.	.	2d\	.
.	[1e	1c	.
.	.	.	2a/
=56	=56	=56	=56
0E_	2e\]	1B	0g
.	2d\	.	.
.	2B\	[1e	.
.	4c\	.	.
.	4B\	.	.
=57	=57	=57	=57
0E]	2c\	2e\]	1r
.	2B\	2d\	.
.	2e\	2c\	1g
.	2d\	2B\	.
=58	=58	=58	=58
0E	1c	0e	2.g/
.	.	.	4a/
.	1B	.	2.g/
.	.	.	4f/
=59	=59	=59	=59
1F	1A	1c	2.a/
.	.	.	4g/
1C	1c	2r	2e/
.	.	[2e\	[2g/
=60	=60	=60	=60
1E	1B	4e\]	4g/]
.	.	4f\	4f/
.	.	2g\	4e/
.	.	.	4d/
2F\	2.A/	1a	2c/
2D\	.	.	2f/
.	4B\	.	.
=61	=61	=61	=61
1A	4c\	2r	2e/
.	4d\	.	.
.	1e	2.a\	1cc
1A	.	.	.
.	.	4g\	.
.	2c\	[2e\	4b\
.	.	.	4a/
=62	=62	=62	=62
2E\	2B\	2e\]	2g/
2F\	2A/	2d\	1a
1E	1B	1e	.
.	.	.	2g#i/
=63	=63	=63	=63
0AAl	0Al	0el	0al
!!LO:LB:i:g=z
=64||	=64||	=64||	=64||
*>C	*>C	*>C	*>C
*clefF4	*clefGv2	*clefGv2	*clefG2
*k[]	*k[]	*k[]	*k[]
*M3/1	*M3/1	*M3/1	*M3/1
*met(C|3)	*met(C|3)	*met(C|3)	*met(C|3)
!!section: Osanna
!!!OMD: Osanna
0A	0.r	1A	0.r
.	.	1.c	.
1A	.	.	.
.	.	2d\	.
=65	=65	=65	=65
1G	0.r	0e	0.r
0F	.	.	.
.	.	1d	.
=66	=66	=66	=66
0E	0.r	0e	0g
1F	.	1c	1a
=67	=67	=67	=67
1C	0.r	0c	1g
0D	.	.	0f
.	.	1B	.
=68	=68	=68	=68
0.r	0A	1c	1e
.	.	1F	2d/
.	.	.	2c/
.	1A	1c	1f
=69	=69	=69	=69
0.r	1G	0B	0e
.	0F	.	.
.	.	1A	1d
=70	=70	=70	=70
1.G	[0.E	0B	1.e
2A\	.	.	2f/
1B	.	[1e	1g
=71	=71	=71	=71
1c	0.E]	0.e]	1a
0B	.	.	0g
=72	=72	=72	=72
0A	[0.e	1.c	0cc
.	.	2d\	.
1G	.	1e	1b
=73	=73	=73	=73
1A	0.e]	1c	1.a
0E	.	0B	.
.	.	.	2g/
.	.	.	1g
=74	=74	=74	=74
1.A	[0.e	1A	1a
.	.	1c	1.ee
2B\	.	.	.
1c	.	1A	.
.	.	.	2dd\
=75	=75	=75	=75
1A	1e]	1r	1cc
0G	0e	1e	0b
.	.	1B	.
=76	=76	=76	=76
1.F	[0.f	0c	1.a
2G\	.	.	2b\
1A	.	1r	1cc
=77	=77	=77	=77
0D	0.f]	0.r	1.dd
.	.	.	2cc\
1D	.	.	2b\
.	.	.	2a/
=78	=78	=78	=78
1A	0e	0.r	2cc\
.	.	.	2b\
0c	.	.	0g
.	[1c	.	.
=79	=79	=79	=79
1A	1c]	0.r	0cc
0G	0d	.	.
.	.	.	1b
=80	=80	=80	=80
1C	0c	2c\	0.cc
.	.	2d\	.
1r	.	2e\	.
.	.	2f\	.
1r	1c	2g\	.
.	.	2a\	.
=81	=81	=81	=81
0.r	1B	0g	1r
.	0A	.	1r
.	.	1f#i	1cc
=82	=82	=82	=82
1G	1G	0g	1b
1E	0c	.	1g
[1F	.	1c	[1a
=83	=83	=83	=83
1F]	1d	1A	1a]
0E	0e	1.B	0g
.	.	2A/	.
=84	=84	=84	=84
1F	1A	1A	1a
1C	1c	0G	1e
[1E	1B	.	[1g
=85	=85	=85	=85
1E]	1c	1G	1g]
0D	0d	1.A	0f
.	.	2B\	.
=86	=86	=86	=86
1C	0e	1c	1e
0G	.	1B	1.b
.	1d	1G	.
.	.	.	2a/
=87	=87	=87	=87
1A	1c	1c	0a
0E	0B	0e	.
.	.	.	1g
=88	=88	=88	=88
1C	1E	1g	1.cc
1.c	1F	1a	.
.	.	.	2dd\
.	1E	1g	[1ee
2B\	.	.	.
=89	=89	=89	=89
1c	1A	1e	2ee\]
.	.	.	2dd\
1d	1G	1g	1b
[1A	[1F	1c	1cc
=90	=90	=90	=90
1A]	1F]	1d	1.a
0B	0E	[0el	.
.	.	.	2g#i/
.	.	.	2g#i/
.	.	.	2f#i/
=91	=91	=91	=91
0.Al	0.Al	0.e]	0.al
!!LO:LB:i:g=z
!!LO:TX:rj:i:Y=40:t=fine
=92||	=92||	=92||	=92||
*>D	*>D	*>D	*>D
*clefF4	*clefGv2	*clefGv2	*clefG2
*k[]	*k[]	*k[]	*k[]
*M2/1	*M2/1	*M2/1	*M2/1
*met(C|)	*met(C|)	*met(C|)	*met(C|)
!!section: Benedictus
!!!OMD: Benedictus
0r	0r	0G	0r
=93	=93	=93	=93
0r	0r	1A	0r
.	.	1B	.
=94	=94	=94	=94
0r	0r	1c	0g
.	.	2B\	.
.	.	[2c\	.
=95	=95	=95	=95
0r	0r	2c\]	1a
.	.	4B\	.
.	.	4A/	.
.	.	1G	1b
=96	=96	=96	=96
0r	0r	2.A/	1.cc
.	.	4B\	.
.	.	4c\	.
.	.	4d\	.
.	.	[2e\	4b\
.	.	.	4a/
=97	=97	=97	=97
1r	0r	4e\]	2g/
.	.	4f\	.
.	.	1g	2b\
1D	.	.	1a
.	.	2f#i\	.
=98	=98	=98	=98
1E	1r	1g	1g
1E	1G	2r	1r
.	.	2g\	.
=99	=99	=99	=99
1F	1A	2.f\	0r
.	.	4e\	.
1G	1B	1d	.
=100	=100	=100	=100
1A	1.c	2c\	0r
.	.	1e	.
[1E	.	.	.
.	4B\	4d\	.
.	4A/	4c\	.
=101	=101	=101	=101
2E\]	2G/	1B	0r
1G	2B\	.	.
.	1A	1r	.
2F#i\	.	.	.
=102	=102	=102	=102
1G	1G	1B	1r
1r	1r	1c	1e
=103	=103	=103	=103
0r	1r	1d	1f
.	1E	1e	1g
=104	=104	=104	=104
1r	1F	1A	1a
[1C	1G	1r	1e
=105	=105	=105	=105
2C/]	1A	1r	0r
2D\	.	.	.
2E\	1E	2B\	.
2C/	.	2c\	.
=106	=106	=106	=106
1G	0r	1d	0r
1A	.	1c	.
=107	=107	=107	=107
1E	0r	1e	1g
1r	.	2f\	1a
.	.	[2d\	.
=108	=108	=108	=108
0r	1G	2d\]	1g
.	.	1g	.
.	1A	.	[1cc
.	.	2f#i\	.
=109	=109	=109	=109
1E	1G	1g	2cc\]
.	.	.	2b\
1F	[1c	1r	1a
=110	=110	=110	=110
1E	2c\]	1r	1g
.	2B\	.	.
1F	1A	1c	1r
=111	=111	=111	=111
1G	1G	2.B\	0r
.	.	4A/	.
1E	1r	2B\	.
.	.	[2c\	.
=112	=112	=112	=112
2F\	0r	4c\]	0r
.	.	4B\	.
2E\	.	2c\	.
2F\	.	1d	.
[2G\	.	.	.
=113	=113	=113	=113
2G\]	0r	2B\	0r
2E\	.	2.c\	.
2F\	.	.	.
.	.	4d\	.
2G\	.	2B\	.
=114	=114	=114	=114
2A\	0r	1c	0r
1E	.	.	.
.	.	2B\	.
2F\	.	4A/	.
.	.	4B\	.
=115	=115	=115	=115
2E\	0r	4c\	0r
.	.	4d\	.
2G\	.	1e	.
1F	.	.	.
.	.	2d\	.
=116	=116	=116	=116
1E	1B	1e	0r
1r	1c	1r	.
=117	=117	=117	=117
0r	1d	1r	1b
.	1e	2r	1cc
.	.	2e\	.
=118	=118	=118	=118
0r	2d\	2f\	1dd
.	2B\	1g	.
.	2c\	.	1ee
.	2A/	[2a\	.
=119	=119	=119	=119
0r	1B	2a\]	2dd\
.	.	2g\	2b\
.	1A	1a	2cc\
.	.	.	[2a/
=120	=120	=120	=120
1E	2B\	1e	2a/]
.	1c	.	2g/
1F	.	2r	1a
.	2d\	[2d\	.
=121	=121	=121	=121
1G	1B	2d\]	0r
.	.	1e	.
2A\	1r	.	.
[2F\	.	2f\	.
=122	=122	=122	=122
2F\]	0r	2d\	0r
2G\	.	1e	.
2F\	.	.	.
2D\	.	[2d\	.
=123	=123	=123	=123
1E	0r	2d\]	0r
.	.	4c\	.
.	.	4d\	.
2C/	.	4e\	.
.	.	4f\	.
[2c\	.	[2g\	.
=124	=124	=124	=124
2c\]	1E	2g\]	1g
2B\	.	1e	.
1A	1F	.	1a
.	.	2d\	.
=125	=125	=125	=125
1B	1E	1e	2g/
.	.	.	[1.cc
2A\	2A/	2f\	.
2E\	2G/	2g\	.
=126	=126	=126	=126
2A\	0c	1e	2cc\]
2G\	.	.	2b\
1F	.	1f	1a
=127	=127	=127	=127
1C	1c	1e	1g
1r	1A	1f	1cc
=128	=128	=128	=128
0r	2G/	2r	2dd\
.	1c	2g\	1ee
.	.	1a	.
.	2d\	.	4dd\
.	.	.	4cc\
=129	=129	=129	=129
0r	1e	2g\	1b
.	.	1e	.
.	1r	.	2cc\
.	.	[2f\	[2dd\
=130	=130	=130	=130
0r	1r	2f\]	2dd\]
.	.	4e\	4cc\
.	.	4d\	4b\
.	2e\	2c\	1a
.	[2f\	[2d\	.
=131	=131	=131	=131
0r	2f\]	2d\]	1r
.	4e\	4c\	.
.	4d\	4B\	.
.	2c\	2A/	1cc
.	2A/	[2e\	.
=132	=132	=132	=132
1r	2G/	4e\]	2b\
.	.	4d\	.
.	2A/	2e\	1cc
1A	1F	4f\	.
.	.	4e\	.
.	.	4d\	4b\
.	.	4c\	4a/
=133	=133	=133	=133
2G\	0r	2d\	2b\
2A\	.	2c\	1e
1F	.	1A	.
.	.	.	2d/
=134	=134	=134	=134
1E	2.G/	1B	2e/
.	.	.	1g
.	4A/	.	.
1r	2B\	1r	.
.	[2c\	.	4f/
.	.	.	4e/
=135	=135	=135	=135
1G	2c\]	2r	1d
.	2B\	2.d\	.
2F\	2A/	.	1r
.	.	4c\	.
2G\	[2d\	4B\	.
.	.	4A/	.
=136	=136	=136	=136
1E	2d\]	1G	2r
.	2c\	.	1g
1D	[1d	1A	.
.	.	.	2f/
=137	=137	=137	=137
1r	1d]	1G	2g/
.	.	.	4f/
.	.	.	4e/
1F	1d	1A	2d/
.	.	.	2a/
=138	=138	=138	=138
2E\	2e\	2B\	2g/
2F\	1c	2A/	1a
1D	.	1d	.
.	2B\	.	4g/
.	.	.	4f/
=139	=139	=139	=139
1C	2c\	0e	2e/
.	4B\	.	2cc\
.	4A/	.	.
1r	2G/	.	2b\
.	2A/	.	[2cc\
=140	=140	=140	=140
1c	1F	1f	2cc\]
.	.	.	4b\
.	.	.	4a/
2B\	1r	2d\	2g/
2c\	.	2e\	[2a/
=141	=141	=141	=141
1A	1c	1f	4a/]
.	.	.	4b\
.	.	.	1cc
1G	1d	1g	.
.	.	.	2b\
=142	=142	=142	=142
1r	0e	2r	2.cc\
.	.	2.c\	.
.	.	.	4dd\
1A	.	.	2ee\
.	.	4d\	.
.	.	4e\	4dd\
.	.	4f\	4cc\
=143	=143	=143	=143
2G\	1e	2g\	2b\
2A\	.	1e	1cc
1F	1A	.	.
.	.	2d\	4b\
.	.	.	4a/
=144	=144	=144	=144
2E\	0B	2e\	2g/
2D\	.	2f\	1a
1E	.	[1el	.
.	.	.	2g#i/
=145	=145	=145	=145
0AAl	0Al	0e]	0al
!!LO:TX:i:Y=40:rj:t=Osanna ut supra
=||	=||	=||	=||
*-	*-	*-	*-
!!!RDF**kern: l=long note in original notation
!!!RDF**kern: i=editorial accidental
!!!ENC:	Jesse Rodin 8/11/2013
!!!END:	2013/08/11/
!!!EED:	Jesse Rodin
!!!EEV:	2013/08/12/
!!!ONB:	Translated from MusicXML and edited on 2013/08/12/ by Craig Sapp
!!muse2ps: T^@{OPR}^u^@{ONM}{. }@{OTL}^C^@{COM}^i2I150v85,85,85,150Q16
